X: 146
T:Bluesaussis
T:Blue Sausage Island
M:C
L:1/8
C:Cliff Stapleton
R:Schottische
Z:Steve Mansfield
K:C
DEF^G A^GAB | c2B2 A^GAB | cABc d2e2 | f4 e2d2 | DEF^G A^GAB |
c2B2 A^GAB | cABc d2e2 | d4 A2d2 :: dfAd fAdf | e2d2 cdec | dfAd fAdf
| e2d2 c4 | dfAd fAdf | e2d2 cdec | d^cAd =c2F2 |1 ^GAFA E2D2 :|2 ^GAFA E4 ||

